packages/tokens/icons/insightPanel1/size24Px.svg

<svg viewBox="0 0 24 24" fill="none" xmlns="http://www.w3.org/2000/svg" width="1em" height="1em"><path d="M19.5 6.5V4.5C19.5 3.39543 18.6046 2.5 17.5 2.5L6.5 2.5C5.39543 2.5 4.5 3.39543 4.5 4.5L4.5 19.5C4.5 20.6046 5.39543 21.5 6.5 21.5H17.5C18.6046 21.5 19.5 20.6046 19.5 19.5V18.5" stroke="currentColor" stroke-linecap="round"/><circle cx="17" cy="12" r="2.5" stroke="currentColor"/><path d="M20.5 15.5L19 14" stroke="currentColor" stroke-linecap="round" stroke-linejoin="round"/><path d="M11.5 17.5H16.5" stroke="currentColor" stroke-linecap="round"/><circle cx="8.5" cy="17.5" r="1" stroke="currentColor"/><path d="M11.5 12H14.5" stroke="currentColor" stroke-linecap="round"/><path d="M9.5 12C9.5 12.5523 9.05228 13 8.5 13C7.94772 13 7.5 12.5523 7.5 12C7.5 11.4477 7.94772 11 8.5 11C9.05228 11 9.5 11.4477 9.5 12Z" stroke="currentColor"/><circle cx="8.5" cy="6.5" r="1" stroke="currentColor"/><path d="M11.5 6.5H16.5" stroke="currentColor" stroke-linecap="round"/></svg>

<svg xmlns="http://www.w3.org/2000/svg" fill="none" viewBox="0 0 24 24" width="1em" height="1em"><path stroke="currentColor" stroke-linecap="round" d="M19.5 6.5v-2a2 2 0 0 0-2-2h-11a2 2 0 0 0-2 2v15a2 2 0 0 0 2 2h11a2 2 0 0 0 2-2v-1"/><circle cx="17" cy="12" r="2.5" stroke="currentColor"/><path stroke="currentColor" stroke-linecap="round" stroke-linejoin="round" d="M20.5 15.5 19 14"/><path stroke="currentColor" stroke-linecap="round" d="M11.5 17.5h5"/><circle cx="8.5" cy="17.5" r="1" stroke="currentColor"/><path stroke="currentColor" stroke-linecap="round" d="M11.5 12h3"/><path stroke="currentColor" d="M9.5 12a1 1 0 1 1-2 0 1 1 0 0 1 2 0Z"/><circle cx="8.5" cy="6.5" r="1" stroke="currentColor"/><path stroke="currentColor" stroke-linecap="round" d="M11.5 6.5h5"/></svg>
